dist/img/icons/experience/next.svg

<svg width="35" height="35" viewBox="0 0 35 35" fill="none" xmlns="http://www.w3.org/2000/svg">
<g clip-path="url(#clip0_1918_192)">
<path d="M25.9755 32.8179C25.8453 32.8868 25.8562 32.9087 25.9809 32.8452C26.0194 32.8295 26.0546 32.8069 26.0848 32.7785C26.0848 32.7555 26.0848 32.7555 25.9755 32.8179ZM26.238 32.6757C26.1756 32.7271 26.1756 32.7271 26.25 32.6932C26.2775 32.6803 26.3026 32.6629 26.3244 32.6418C26.3244 32.6123 26.3069 32.6188 26.238 32.6757ZM26.4086 32.5729C26.3463 32.6243 26.3463 32.6243 26.4206 32.5904C26.4482 32.5772 26.4734 32.5595 26.495 32.5379C26.495 32.5105 26.4775 32.516 26.4086 32.5729ZM26.5814 32.4712C26.5191 32.5226 26.5191 32.5226 26.5913 32.4876C26.6317 32.4657 26.6656 32.4427 26.6656 32.4362C26.6656 32.4088 26.6481 32.4143 26.5814 32.4712ZM26.8144 32.3169C26.6952 32.3968 26.6536 32.4482 26.763 32.3913C26.8362 32.3465 26.9609 32.248 26.9391 32.248C26.892 32.2655 26.8527 32.2951 26.8133 32.3169H26.8144ZM16.3548 0.0119453C16.275 0.0174141 16.0355 0.0392891 15.8255 0.0567891C10.8511 0.507414 6.19719 3.18491 3.24734 7.30945C1.61718 9.57159 0.557548 12.194 0.158594 14.9537C0.0175 15.9162 0 16.2005 0 17.5054C0 18.8091 0.0175 19.0891 0.158594 20.0516C1.11125 26.6262 5.78813 32.1452 12.1275 34.1905C13.2683 34.5548 14.4637 34.8063 15.8255 34.9605C16.3548 35.0174 18.6441 35.0174 19.1734 34.9605C21.5272 34.698 23.5145 34.1173 25.4811 33.1143C25.783 32.9612 25.8398 32.9207 25.7994 32.8868C24.84 31.6187 23.8888 30.3444 22.9458 29.0641L20.1491 25.2874L16.6458 20.0976C15.4805 18.3599 14.3032 16.6303 13.1141 14.9088C13.102 14.9088 13.0867 17.2155 13.0802 20.0287C13.0681 24.956 13.0681 25.1562 13.0058 25.2699C12.946 25.4073 12.8389 25.5187 12.7039 25.5838C12.5956 25.6352 12.4983 25.6462 11.9809 25.6462H11.3892L11.235 25.5499C11.1384 25.4879 11.0599 25.4015 11.0075 25.2994L10.9331 25.1452L10.9386 18.2863L10.9506 11.4274L11.0589 11.2907C11.1281 11.2066 11.2132 11.1371 11.3094 11.0862C11.4527 11.0173 11.5095 11.0063 12.1013 11.0063C12.7958 11.0063 12.9106 11.0337 13.0933 11.2338C14.5125 13.3446 15.9194 15.4636 17.3141 17.5907C19.588 21.0382 22.692 25.7424 24.2178 28.0502L26.9927 32.2491L27.1294 32.1584C28.4629 31.2722 29.6714 30.2108 30.7223 29.0029C32.9268 26.4797 34.3573 23.3745 34.8425 20.0593C34.9836 19.0968 35.0011 18.8113 35.0011 17.5076C35.0011 16.2027 34.9836 15.9238 34.8425 14.9613C33.8898 8.38679 29.213 2.86773 22.8736 0.82132C21.6888 0.446078 20.4694 0.190683 19.2336 0.0589766C18.9022 0.0250703 16.6403 -0.0153984 16.3559 0.0141328L16.3548 0.0119453ZM23.5156 10.5962C23.597 10.6361 23.6696 10.6919 23.7291 10.7603C23.7886 10.8286 23.8339 10.9082 23.8623 10.9943C23.8919 11.0862 23.8973 12.9882 23.8919 17.2724L23.8798 23.4237L22.7981 21.7612L21.7098 20.0976V15.6318C21.7098 12.7366 21.7219 11.1135 21.7372 11.0337C21.7907 10.8506 21.9135 10.6956 22.0795 10.6016C22.2152 10.5327 22.2677 10.5273 22.8091 10.5273C23.3155 10.5273 23.4019 10.5327 23.5156 10.5962Z" fill="#D6BD96"/>
</g>
<defs>
<clipPath id="clip0_1918_192">
<rect width="35" height="35" fill="white"/>
</clipPath>
</defs>
</svg>

<svg width="35" height="35" fill="none" xmlns="http://www.w3.org/2000/svg"><g clip-path="url(#a)"><path d="M25.976 32.818c-.13.069-.12.09.005.027a.338.338 0 0 0 .104-.066c0-.024 0-.024-.11.039Zm.262-.142c-.062.051-.062.051.012.017a.275.275 0 0 0 .074-.051c0-.03-.017-.023-.086.034Zm.17-.103c-.062.051-.062.051.013.017a.27.27 0 0 0 .074-.052c0-.027-.018-.022-.086.035Zm.173-.102c-.062.052-.062.052.01.017.04-.022.075-.045.075-.052 0-.027-.018-.022-.085.035Zm.233-.154c-.119.08-.16.131-.051.074.073-.044.198-.143.176-.143-.047.018-.086.047-.126.069h.001ZM16.354.012c-.079.005-.319.027-.528.045-4.975.45-9.629 3.128-12.579 7.252A17.312 17.312 0 0 0 .16 14.954C.018 15.916 0 16.2 0 17.505s.018 1.584.159 2.547c.952 6.574 5.63 12.093 11.968 14.139a19.09 19.09 0 0 0 3.698.77c.53.056 2.82.056 3.348 0 2.354-.263 4.342-.844 6.308-1.847.302-.153.359-.193.318-.227a379.254 379.254 0 0 1-2.853-3.823l-2.797-3.777-3.503-5.19a456.138 456.138 0 0 0-3.532-5.188c-.012 0-.027 2.306-.034 5.12-.012 4.927-.012 5.127-.074 5.24a.626.626 0 0 1-.302.315c-.108.051-.206.062-.723.062h-.592l-.154-.096a.65.65 0 0 1-.227-.25l-.075-.155.006-6.859.012-6.859.108-.136a.823.823 0 0 1 .25-.205c.144-.069.2-.08.792-.08.695 0 .81.028.992.228 1.42 2.11 2.826 4.23 4.221 6.357a15019.2 15019.2 0 0 0 6.904 10.46l2.775 4.198.136-.09a17.88 17.88 0 0 0 3.593-3.156 17.43 17.43 0 0 0 4.12-8.944c.142-.962.16-1.248.16-2.551 0-1.305-.018-1.584-.16-2.547C33.89 8.387 29.214 2.868 22.875.821a18.575 18.575 0 0 0-3.64-.762c-.332-.034-2.594-.074-2.878-.045l-.001-.002Zm7.162 10.584a.68.68 0 0 1 .346.398c.03.092.035 1.994.03 6.278l-.012 6.152-1.082-1.663-1.088-1.663v-4.466c0-2.895.012-4.518.027-4.598a.733.733 0 0 1 .343-.432c.135-.07.188-.075.73-.075.506 0 .592.006.706.07Z" fill="#D6BD96"/></g><defs><clipPath id="a"><path fill="#fff" d="M0 0h35v35H0z"/></clipPath></defs></svg>
